!!!COM: Schubert, Franz Peter
!!!CDT: 1797-1828
!!!OTL: Die Forelle
!!!OPS: Opus 32
!!!SCT: DV 550
!!!YOR: Franz Schubert: Selected songs
!!!PPE: Max Friedlaender
!!!PSR: C.F. Peters 
!!!PSP: Frankfurt, London, New York
!!!PSD: n.d.
!!!PPG: pp.75-78
!!!ODT: 1817///
!!!ONB: Leading and trailing bars of rest have been deleted.
**kern
*M2/4
*MM[Etwas lebhaft]
*D-:
*k[b-e-a-d-g-]
=1
4r
8r
8a-
=2
8dd-
8dd-
8ff
8ff
=3
4dd-
8a-
8a-
=4
8.a-
16a-
(16ee-
16dd-)
(16cc
16b-)
=5
4a-
8r
8a-
=6
8dd-
8dd-
8ff
8ff
=7
4dd-
8a-
8dd-
=8
8cc
(16b-
16cc)
8dd-
8gn
=9
4a-
8r
8a-
=10
8cc
8cc
(16dd-
16cc)
(16b-
16cc)
=11
4dd-
8a-
8dd-
=12
8cc
8cc
(16cc
16gg-)
(16ee-
16cc)
=13
4.dd-
8dd-
=14
8b-
8b-
8b-
8dd-
=15
4dd-
8a-
8a-
=16
8.a-
16a-
8ee-
8cc
=17
4.dd-
8dd-
=18
(16cc
16b-)
8b-
(16b-
16dd-)
(16cc
16ee-)
=19
4dd-
8a-
8a-
=20
8.a-
16a-
8ee-
8cc
=21
4dd-
4r
=22
2r
=23
2r
=24
2r
=25
4r
8r
8a-
=26
8dd-
8dd-
8ff
8ff
=27
4dd-
8a-
8a-
=28
8.a-
16a-
(16ee-
16dd-)
(16cc
16b-)
=29
4a-
8r
8a-
=30
8dd-
8dd-
8ff
8ff
=31
4dd-
8a-
8dd-
=32
8cc
(16b-
16cc)
8dd-
8gn
=33
4a-
8r
8a-
=34
8cc
8cc
(16dd-
16cc)
(16b-
16cc)
=35
4dd-
8a-
8dd-
=36
8cc
8cc
(16cc
16gg-)
(16ee-
16cc)
=37
4.dd-
8dd-
=38
8b-
8b-
8b-
8dd-
=39
4dd-
8a-
8a-
=40
8.a-
16a-
8ee-
8cc
=41
4.dd-
8dd-
=42
(16cc
16b-)
8b-
(16b-
16dd-)
(16cc
16ee-)
=43
4dd-
8a-
8a-
=44
8.a-
16a-
8ee-
8cc
=45
4dd-
4r
=46
2r
=47
2r
=48
2r
=49
4r
8r
8f
=50
8f
8f
8f
8cc
=51
4dd-
8b-
8r
=52
8r
8f
8.f
16cc
=53
4dd-
4r
=54
8r
8dd-
8dd-
8dd-
=55
8dd-
8dd-
8dd-
8dd-
=56
4dd-
8b-
16r
16b-
=57
[4ee-
16ee-]
16b-
16gn
16e-
=58
4cc
8r
8a-
=59
8.dd-
16dd-
8.cc
16cc
=60
8ff
8b-
8r
8b-
=61
4ee-
8ee-
8een
=62
8ff
8dd-
8cc
8ee-
=63
4dd-
8r
8dd-
=64
8b-
8b-
8b-
8dd-
=65
4dd-
8a-
8a-
=66
8.a-
16a-
8ee-
8cc
=67
4.dd-
8dd-
=68
(16cc
16b-)
8b-
(16b-
16dd-)
(16cc
16ee-)
=69
4dd-
8a-
8a-
=70
8.a-
16a-
8ee-
8cc
=71
4dd-
4r
==
*-
!!!ENC: David Huron
!!!EMD: Paul von Hippel updated this file in the following ways (1998/9/2,21-22/):
!!!EMD:  (1) changed the representation of slurs from curly braces to parentheses 
!!!EMD:  (2) changed freeform comments into reference records and tandem interpretations
!!!EMD:  (3) changed final barline from quadruple (====) to double (==)
!!!EMD:  (4) added key signatures, key designations, and tempi
!!!EEV: Version 2.0
